X: 27541
T: Monaghan, The
R: jig
M: 6/8
K: Gmajor
G|B2e dBG|A>BA A2G|B2e dBG|d>BB TB2
A|B2e dBG|A>BA g2a|g>eg dBG|B>cB B2:|
G|g2g gab|d>ed dBG|g2g gab|g>ee e2
d|def gfe|def g>ab|g>eg dBG|B>cB B2:|
G2e dBG|~B3 dBA|G2e dBG|~A3 BGE|
G2e dBG|~B3 deg|age dBG|~A3 BGE:|
~g3 faf|e/f/ge def|gfg efg|aga bge|
gbg f/g/af|ege deg|age dBG|~A3 BGE:|

